X: 1
T: Fight about the Fireside
T: 8 x 32R 3C (RSCDS Bk 1)
P: Glenburnie Rant
C: RSCDS Book 1, arr. T. Traub 6-20-2005
R: reel
M: 4/4
L: 1/8
K: Em
|: B2 |"Em"E2 EF E2 EF|"D"DEFG AFDF|"Em"E2 EF E2 B2 |"B"efe^d "Em"e2 :|
B2|"Em"e2 ef g2 fe|"D"defg afdf|"Em"e2 ef g2 fe|"B7"efe^d "Em"e2 B2|
"Em"e2 ef "A"g2 fe|"D"defg afdf|"G"g2 bg "D"f2 af|"B"efe^d "Em"e2 |]

